( Made using CamBam - http://www.cambam.co.uk )
( cutout 6/27/2016 10:28:40 PM )
( T3 : 3.0 )
G21 G90 G64 G40
G0 Z3.0
( T3 : 3.0 )
T3 M6
( Profile1 )
G17
M3 S1000
G0 X26.375 Y-0.0003
G1 F300.0 Z-0.2
G2 F800.0 X26.075 I-0.15 J0.0
G3 Y0.0 I-1.5 J0.0003
G1 Y4.15
G3 Y4.1503 I-1.5 J0.0
G2 X26.375 I0.15 J0.0
G3 Y4.15 I1.5 J-0.0003
G1 Y0.0
G3 Y-0.0003 I1.5 J0.0
G1 F300.0 Z-0.4
G2 F800.0 X26.075 I-0.15 J0.0
G3 Y0.0 I-1.5 J0.0003
G1 Y4.15
G3 Y4.1503 I-1.5 J0.0
G2 X26.375 I0.15 J0.0
G3 Y4.15 I1.5 J-0.0003
G1 Y0.0
G3 Y-0.0003 I1.5 J0.0
G1 F300.0 Z-0.6
G2 F800.0 X26.075 I-0.15 J0.0
G3 Y0.0 I-1.5 J0.0003
G1 Y4.15
G3 Y4.1503 I-1.5 J0.0
G2 X26.375 I0.15 J0.0
G3 Y4.15 I1.5 J-0.0003
G1 Y0.0
G3 Y-0.0003 I1.5 J0.0
G1 F300.0 Z-0.8
G2 F800.0 X26.075 I-0.15 J0.0
G3 Y0.0 I-1.5 J0.0003
G1 Y4.15
G3 Y4.1503 I-1.5 J0.0
G2 X26.375 I0.15 J0.0
G3 Y4.15 I1.5 J-0.0003
G1 Y0.0
G3 Y-0.0003 I1.5 J0.0
G1 F300.0 Z-1.0
G2 F800.0 X26.075 I-0.15 J0.0
G3 Y0.0 I-1.5 J0.0003
G1 Y4.15
G3 Y4.1503 I-1.5 J0.0
G2 X26.375 I0.15 J0.0
G3 Y4.15 I1.5 J-0.0003
G1 Y0.0
G3 Y-0.0003 I1.5 J0.0
G1 F300.0 Z-1.2
G2 F800.0 X26.075 I-0.15 J0.0
G3 Y0.0 I-1.5 J0.0003
G1 Y4.15
G3 Y4.1503 I-1.5 J0.0
G2 X26.375 I0.15 J0.0
G3 Y4.15 I1.5 J-0.0003
G1 Y0.0
G3 Y-0.0003 I1.5 J0.0
G1 F300.0 Z-1.4
G2 F800.0 X26.075 I-0.15 J0.0
G3 Y0.0 I-1.5 J0.0003
G1 Y4.15
G3 Y4.1503 I-1.5 J0.0
G2 X26.375 I0.15 J0.0
G3 Y4.15 I1.5 J-0.0003
G1 Y0.0
G3 Y-0.0003 I1.5 J0.0
G1 F300.0 Z-1.6
G2 F800.0 X26.075 I-0.15 J0.0
G3 Y0.0 I-1.5 J0.0003
G1 Y4.15
G3 Y4.1503 I-1.5 J0.0
G2 X26.375 I0.15 J0.0
G3 Y4.15 I1.5 J-0.0003
G1 Y0.0
G3 Y-0.0003 I1.5 J0.0
G1 F300.0 Z-1.8
G2 F800.0 X26.075 I-0.15 J0.0
G3 Y0.0 I-1.5 J0.0003
G1 Y4.15
G3 Y4.1503 I-1.5 J0.0
G2 X26.375 I0.15 J0.0
G3 Y4.15 I1.5 J-0.0003
G1 Y0.0
G3 Y-0.0003 I1.5 J0.0
G1 F300.0 Z-2.0
G2 F800.0 X26.075 I-0.15 J0.0
G3 Y0.0 I-1.5 J0.0003
G1 Y4.15
G3 Y4.1503 I-1.5 J0.0
G2 X26.375 I0.15 J0.0
G3 Y4.15 I1.5 J-0.0003
G1 Y0.0
G3 Y-0.0003 I1.5 J0.0
G1 F300.0 Z-2.2
G2 F800.0 X26.075 I-0.15 J0.0
G3 Y0.0 I-1.5 J0.0003
G1 Y4.15
G3 Y4.1503 I-1.5 J0.0
G2 X26.375 I0.15 J0.0
G3 Y4.15 I1.5 J-0.0003
G1 Y0.0
G3 Y-0.0003 I1.5 J0.0
G1 F300.0 Z-2.4
G2 F800.0 X26.075 I-0.15 J0.0
G3 Y0.0 I-1.5 J0.0003
G1 Y4.15
G3 Y4.1503 I-1.5 J0.0
G2 X26.375 I0.15 J0.0
G3 Y4.15 I1.5 J-0.0003
G1 Y0.0
G3 Y-0.0003 I1.5 J0.0
G1 F300.0 Z-2.6
G2 F800.0 X26.075 I-0.15 J0.0
G3 Y0.0 I-1.5 J0.0003
G1 Y4.15
G3 Y4.1503 I-1.5 J0.0
G2 X26.375 I0.15 J0.0
G3 Y4.15 I1.5 J-0.0003
G1 Y0.0
G3 Y-0.0003 I1.5 J0.0
G0 Z3.0
M5
M30
